X:1
T:Title
L:1/4
M:3/4
I:linebreak $
K:D
V:1 treble nm="Harp" snm="Hrp."
V:1
 [D,A,F] [EG] [FA] | [G,,G,A]2 D | [F,,D,A,A]2 C | [G,,B,] C D | [A,,C] D E | [D,A,F] [EG] [FA] | %6
 [G,,G,A]2 D | [F,,D,A,A]2 C | [G,,B,] C D | [A,,C] D E | [D,D]2- [D,D] |] %11
